www/assets/icons/sports_golf.svg

<svg width="24" height="24" viewBox="0 0 24 24" xmlns="http://www.w3.org/2000/svg" fill='currentColor'><path d="M12 16C15.87 16 19 12.87 19 9C19 5.13 15.87 2 12 2C8.13 2 5 5.13 5 9C5 12.87 8.13 16 12 16ZM12 4C14.76 4 17 6.24 17 9C17 11.76 14.76 14 12 14C9.24 14 7 11.76 7 9C7 6.24 9.24 4 12 4Z"/><path d="M10 9C10.5523 9 11 8.55228 11 8C11 7.44772 10.5523 7 10 7C9.44772 7 9 7.44772 9 8C9 8.55228 9.44772 9 10 9Z"/><path d="M14 9C14.5523 9 15 8.55228 15 8C15 7.44772 14.5523 7 14 7C13.4477 7 13 7.44772 13 8C13 8.55228 13.4477 9 14 9Z"/><path d="M12 7C12.5523 7 13 6.55228 13 6C13 5.44772 12.5523 5 12 5C11.4477 5 11 5.44772 11 6C11 6.55228 11.4477 7 12 7Z"/><path d="M7 19H9C10.1 19 11 19.9 11 21V22H13V21C13 19.9 13.9 19 15 19H17V17H7V19Z"/></svg>

<svg xmlns="http://www.w3.org/2000/svg" width="24" height="24" viewBox="0 0 24 24" fill='currentColor'><path d="M12 16c3.87 0 7-3.13 7-7s-3.13-7-7-7-7 3.13-7 7 3.13 7 7 7m0-12c2.76 0 5 2.24 5 5s-2.24 5-5 5-5-2.24-5-5 2.24-5 5-5"/><path d="M10 9a1 1 0 1 0 0-2 1 1 0 0 0 0 2m4 0a1 1 0 1 0 0-2 1 1 0 0 0 0 2m-2-2a1 1 0 1 0 0-2 1 1 0 0 0 0 2M7 19h2c1.1 0 2 .9 2 2v1h2v-1c0-1.1.9-2 2-2h2v-2H7z"/></svg>
